brandFactory_export/1.Light/Pulmones_1Light.svg

<?xml version="1.0" encoding="UTF-8"?>
<svg width="24px" height="24px" viewBox="0 0 24 24" version="1.1" xmlns="http://www.w3.org/2000/svg" xmlns:xlink="http://www.w3.org/1999/xlink">
    <title>1.Light/Pulmones_1Light</title>
    <g id="Symbols" stroke="none" stroke-width="1" fill="none" fill-rule="evenodd">
        <g id="1.Light/Pulmones_1Light" fill="#5CB615" fill-rule="nonzero">
            <path d="M22.087395,21.3647059 C22.0773109,21.3747899 21.8084034,21.6403361 21.3613445,21.6605042 C20.4739496,21.6941176 19.9764706,21.2705882 19.5697479,20.9243697 L19.4621849,20.8336134 C19.0252101,20.4705882 18.6487395,20.1546218 17.7815126,20.1546218 C17.2941176,20.1176471 16.194958,20.0470588 16.0806723,20.0302521 C15.6168067,19.9092437 15.0016807,19.6033613 15.0016807,18.3193277 C14.8235294,14.3630252 14.7630252,9.9697479 15.0151261,9.08235294 C15.0890756,8.81680672 15.1596639,8.63193277 15.2705882,8.41344538 C15.3411765,8.19831933 15.5563025,7.54621849 16.7731092,7.54621849 C17.502521,7.54621849 17.9731092,7.79831933 18.4033613,8.4605042 C18.4369748,8.49747899 21.6470588,12.0605042 22.3394958,16.1445378 C22.8201681,18.9445378 22.7327731,20.6991597 22.087395,21.3647059 L22.087395,21.3647059 Z M11.9798319,11.892437 C11.8386555,11.8218487 11.6705882,11.8218487 11.5327731,11.892437 L9.84537815,12.7428571 C9.8487395,12.2756303 9.84537815,11.8218487 9.83865546,11.394958 L10.9478992,10.8369748 C11.1193277,10.7495798 11.2268908,10.5747899 11.2268908,10.3798319 L11.210084,3.03865546 L12.4369748,3.02184874 L12.4369748,10.4 C12.4369748,10.594958 12.5445378,10.7697479 12.7159664,10.8571429 L13.8487395,11.4285714 C13.8420168,11.8756303 13.8420168,12.3529412 13.8453782,12.8403361 L11.9798319,11.892437 Z M8.68571429,18.3092437 C8.68571429,19.5495798 8.07058824,19.8554622 7.63361345,19.9697479 C7.49243697,19.9932773 6.38991597,20.0806723 5.90588235,20.1008403 C5.04201681,20.1008403 4.66554622,20.4134454 4.22857143,20.7798319 L4.1210084,20.8705882 C3.71428571,21.2134454 3.23361345,21.6403361 2.32941176,21.6067227 C1.88235294,21.5865546 1.61344538,21.3210084 1.60336134,21.3109244 C0.957983193,20.6453782 0.870588235,18.8907563 1.34117647,16.097479 C2.03361345,12.0134454 5.24705882,8.44705882 5.33109244,8.34285714 C5.71092437,7.7512605 6.18151261,7.49915966 6.91092437,7.49915966 C8,7.49915966 8.28907563,7.99327731 8.45042017,8.45042017 C8.52436975,8.58823529 8.59495798,8.77310924 8.66890756,9.03529412 C8.92436975,9.91932773 8.8605042,14.3092437 8.68571429,18.3092437 Z M23.3378151,15.9764706 C22.594958,11.5865546 19.287395,7.92268908 19.2,7.83865546 C18.6352941,6.95798319 17.8420168,6.52773109 16.7764706,6.52773109 C15.5260504,6.52773109 14.6521008,7.08235294 14.3563025,8.00336134 C14.2420168,8.20840336 14.1478992,8.45378151 14.0504202,8.79663866 C13.9663866,9.08907563 13.912605,9.6302521 13.8823529,10.2957983 L13.4420168,10.0739496 L13.4420168,3.01512605 C13.4420168,2.4605042 12.9983193,2.01008403 12.4537815,2.01008403 L11.210084,2.01008403 C10.6655462,2.01008403 10.2218487,2.4605042 10.2218487,3.01512605 L10.2218487,10.0571429 L9.80504202,10.2689076 C9.77142857,9.58991597 9.7210084,9.03865546 9.63361345,8.74285714 C9.53613445,8.40336134 9.44201681,8.1512605 9.36470588,8.03361345 C9.03193277,7.02521008 8.15798319,6.47058824 6.90756303,6.47058824 C5.83865546,6.47058824 5.0487395,6.90084034 4.53781513,7.71092437 C4.39663866,7.86554622 1.09243697,11.5294118 0.346218487,15.9193277 C-0.208403361,19.189916 -0.043697479,21.0756303 0.884033613,22.0235294 C0.974789916,22.1176471 1.46890756,22.5882353 2.28235294,22.6252101 C2.33613445,22.6285714 2.38655462,22.6285714 2.43697479,22.6285714 C3.61344538,22.6285714 4.32941176,22.0201681 4.76302521,21.6504202 L4.86386555,21.5663866 C5.24369748,21.2504202 5.40840336,21.1428571 5.91260504,21.1193277 C6.43697479,21.1193277 7.70084034,21.005042 7.85546218,20.9613445 C9.03529412,20.6487395 9.68739496,19.707563 9.68739496,18.3092437 C9.72436975,17.4487395 9.79495798,15.6840336 9.82857143,13.8857143 L11.7512605,12.9176471 L13.8554622,13.9798319 C13.8890756,15.7647059 13.9596639,17.5058824 13.9966387,18.3596639 C13.9966387,19.7613445 14.6487395,20.7058824 15.8218487,21.0151261 C15.9798319,21.0588235 17.2436975,21.1731092 17.7714286,21.1731092 L17.7815126,21.1731092 C18.2857143,21.1731092 18.4436975,21.3042017 18.8201681,21.6201681 L18.9210084,21.7042017 C19.3546218,22.0739496 20.0705882,22.6823529 21.2470588,22.6823529 C21.297479,22.6823529 21.3512605,22.6823529 21.4016807,22.6789916 C22.2117647,22.6420168 22.7092437,22.1714286 22.8,22.0806723 C23.7277311,21.1327731 23.892437,19.2470588 23.3378151,15.9764706 Z" id="Pulmones_1Light"></path>
        </g>
    </g>
</svg>

<svg width="24" height="24" viewBox="0 0 24 24" xmlns="http://www.w3.org/2000/svg"><path d="M22.087 21.365c-.01.01-.279.275-.726.296-.887.033-1.385-.39-1.791-.737l-.108-.09c-.437-.363-.813-.68-1.68-.68-.488-.036-1.587-.107-1.701-.124-.464-.12-1.08-.427-1.08-1.71-.177-3.957-.238-8.35.014-9.238.074-.265.145-.45.256-.669.07-.215.285-.867 1.502-.867.73 0 1.2.252 1.63.915.034.036 3.244 3.6 3.936 7.684.481 2.8.394 4.554-.252 5.22zM11.98 11.892a.498.498 0 00-.447 0l-1.688.85c.004-.466 0-.92-.006-1.347l1.109-.558a.51.51 0 00.279-.457l-.017-7.341 1.227-.017V10.4c0 .195.108.37.279.457l1.133.572c-.007.447-.007.924-.004 1.411l-1.865-.948zM8.686 18.31c0 1.24-.615 1.546-1.052 1.66-.142.024-1.244.112-1.728.132-.864 0-1.24.312-1.677.679l-.108.09c-.407.343-.887.77-1.792.737a1.156 1.156 0 01-.726-.296c-.645-.666-.732-2.42-.262-5.214.693-4.084 3.906-7.65 3.99-7.754.38-.592.85-.844 1.58-.844 1.089 0 1.378.494 1.54.951.073.138.144.323.218.585.255.884.192 5.274.017 9.274zm14.652-2.333c-.743-4.39-4.05-8.053-4.138-8.137-.565-.881-1.358-1.311-2.424-1.311-1.25 0-2.124.554-2.42 1.475-.114.205-.208.45-.306.794-.084.292-.137.833-.168 1.499l-.44-.222V3.015a.998.998 0 00-.988-1.005H11.21a.998.998 0 00-.988 1.005v7.042l-.417.212c-.034-.68-.084-1.23-.171-1.526-.098-.34-.192-.592-.27-.71-.332-1.008-1.206-1.562-2.456-1.562-1.07 0-1.86.43-2.37 1.24-.141.155-3.446 3.818-4.192 8.208-.554 3.27-.39 5.157.538 6.105.09.094.585.564 1.398.601.054.004.105.004.155.004 1.176 0 1.892-.609 2.326-.979l.1-.084c.38-.316.545-.423 1.05-.447.524 0 1.788-.114 1.942-.158 1.18-.312 1.832-1.253 1.832-2.652.037-.86.108-2.625.142-4.423l1.922-.968 2.104 1.062c.034 1.785.105 3.526.142 4.38 0 1.401.652 2.346 1.825 2.655.158.044 1.422.158 1.95.158h.01c.504 0 .662.131 1.038.447l.101.084c.434.37 1.15.978 2.326.978.05 0 .104 0 .155-.003a2.164 2.164 0 001.398-.598c.928-.948 1.092-2.834.538-6.105z" fill="#5CB615" fill-rule="nonzero"/></svg>
